dist/img/icons/meditation/1.svg

<svg width="62" height="67" viewBox="0 0 62 67" fill="none" xmlns="http://www.w3.org/2000/svg">
<path d="M59.0059 45.4689C60.2925 41.8806 60.9996 37.9862 60.9996 33.9123C60.9996 29.3213 60.1009 24.952 58.4902 20.9995" stroke="#646B5C" stroke-width="1.3" stroke-miterlimit="10" stroke-linecap="round" stroke-linejoin="round"/>
<path d="M30.421 32.8512C30.4357 32.8512 30.4554 32.8512 30.4701 32.8512C30.475 32.6985 30.475 32.5405 30.4799 32.3877C30.4553 32.3877 30.4308 32.3877 30.4062 32.3877C30.4161 32.5405 30.4161 32.6985 30.421 32.8512Z" stroke="#646B5C" stroke-width="1.3" stroke-miterlimit="10" stroke-linecap="round" stroke-linejoin="round"/>
<path d="M30.4425 33.9131C30.4425 33.5543 30.4573 33.2007 30.4671 32.8472C30.4524 32.8472 30.4327 32.8472 30.418 32.8472C30.4278 33.206 30.4425 33.5596 30.4425 33.9131Z" stroke="#646B5C" stroke-width="1.3" stroke-miterlimit="10" stroke-linecap="round" stroke-linejoin="round"/>
<path d="M30.328 32.3825C19.8387 32.1133 10.6851 26.0606 5.53377 17.0686C2.96055 12.5726 1.38421 7.3484 1.13867 1.74951C6.47662 1.87088 11.4758 3.48564 15.7775 6.23496C21.2874 9.75471 25.6579 15.1161 28.1476 21.533C28.1476 21.533 15.8561 25.7598 8.63735 10.6149" stroke="#646B5C" stroke-width="1.3" stroke-miterlimit="10" stroke-linecap="round" stroke-linejoin="round"/>
<path d="M60.3975 1.73389C55.0645 1.73389 50.0605 3.23783 45.7243 5.86578C36.998 11.148 30.9823 20.9896 30.4863 32.388C30.6778 32.3932 30.8645 32.4038 31.0511 32.4038C41.8399 32.4038 51.298 26.2666 56.5672 17.0688C59.1404 12.5728 60.7167 7.34861 60.9622 1.74972C60.7756 1.74444 60.5841 1.73389 60.3975 1.73389Z" stroke="#646B5C" stroke-width="1.3" stroke-miterlimit="10" stroke-linecap="round" stroke-linejoin="round"/>
<path d="M30.421 33.0312C30.4357 33.0312 30.4554 33.0312 30.4701 33.0312C30.475 33.184 30.475 33.342 30.4799 33.4948C30.4553 33.4948 30.4308 33.4948 30.4062 33.4948C30.4161 33.3473 30.4161 33.1893 30.421 33.0312Z" stroke="#646B5C" stroke-width="1.3" stroke-miterlimit="10" stroke-linecap="round" stroke-linejoin="round"/>
<path d="M30.4425 31.9717C30.4425 32.3305 30.4573 32.6841 30.4671 33.0376C30.4524 33.0376 30.4327 33.0376 30.418 33.0376C30.4278 32.6788 30.4425 32.3305 30.4425 31.9717Z" stroke="#646B5C" stroke-width="1.3" stroke-miterlimit="10" stroke-linecap="round" stroke-linejoin="round"/>
<path d="M5.53377 48.8202C2.96055 53.3162 1.38421 58.5404 1.13867 64.1393C6.47662 64.0179 11.4758 62.4032 15.7775 59.6539C24.1798 54.2872 29.9302 44.6355 30.4164 33.5063C19.8878 33.7385 10.6998 39.8018 5.53377 48.8202Z" stroke="#646B5C" stroke-width="1.3" stroke-miterlimit="10" stroke-linecap="round" stroke-linejoin="round"/>
<path d="M32.4858 43.6647C35.0148 50.6198 39.7242 56.3928 45.7202 60.0234C50.0564 62.646 55.0604 64.1552 60.3934 64.1552C60.585 64.1552 60.7716 64.1447 60.9582 64.1394C60.7126 58.5405 59.1363 53.3163 56.5631 48.8203C51.2939 39.6225 41.8358 33.4854 31.047 33.4854C30.9832 33.4854 30.9193 33.4853 30.8555 33.4906" stroke="#646B5C" stroke-width="1.3" stroke-miterlimit="10" stroke-linecap="round" stroke-linejoin="round"/>
<path d="M2.99375 45.4689C1.70714 41.8806 1 37.9862 1 33.9123C1 29.3213 1.89865 24.952 3.50937 20.9995" stroke="#646B5C" stroke-width="1.3" stroke-miterlimit="10" stroke-linecap="round" stroke-linejoin="round"/>
<path d="M19.6172 3.14246C22.9565 1.75989 26.5806 1 30.3668 1C34.6391 1 38.7052 1.96569 42.3833 3.69655" stroke="#646B5C" stroke-width="1.3" stroke-miterlimit="10" stroke-linecap="round" stroke-linejoin="round"/>
<path d="M19.6172 63.3319C22.9565 64.7145 26.5806 65.4744 30.3668 65.4744C34.6391 65.4744 38.7052 64.5087 42.3833 62.7778" stroke="#646B5C" stroke-width="1.3" stroke-miterlimit="10" stroke-linecap="round" stroke-linejoin="round"/>
</svg>

<svg width="62" height="67" viewBox="0 0 62 67" fill="none" xmlns="http://www.w3.org/2000/svg"><path d="M59.006 45.469A34.191 34.191 0 0061 33.912c0-4.59-.9-8.96-2.51-12.912M30.421 32.851h.05c.004-.152.004-.31.009-.463h-.074c.01.153.01.31.015.463z" stroke="#646B5C" stroke-width="1.3" stroke-miterlimit="10" stroke-linecap="round" stroke-linejoin="round"/><path d="M30.442 33.913c0-.359.015-.712.025-1.066h-.049c.01.359.024.713.024 1.066zm-.114-1.53c-10.49-.27-19.643-6.322-24.794-15.314-2.573-4.496-4.15-9.72-4.395-15.32 5.338.122 10.337 1.737 14.638 4.486 5.51 3.52 9.88 8.881 12.37 15.298 0 0-12.29 4.227-19.51-10.918m51.761-8.881c-5.334 0-10.338 1.504-14.674 4.132-8.726 5.282-14.742 15.124-15.238 26.522.192.005.378.016.565.016 10.789 0 20.247-6.137 25.516-15.335 2.573-4.496 4.15-9.72 4.395-15.32-.186-.005-.378-.015-.565-.015z" stroke="#646B5C" stroke-width="1.3" stroke-miterlimit="10" stroke-linecap="round" stroke-linejoin="round"/><path d="M30.421 33.031h.05c.004.153.004.311.009.464h-.074c.01-.148.01-.306.015-.464z" stroke="#646B5C" stroke-width="1.3" stroke-miterlimit="10" stroke-linecap="round" stroke-linejoin="round"/><path d="M30.442 31.972c0 .358.015.712.025 1.066h-.049c.01-.36.024-.707.024-1.066zM5.534 48.82c-2.573 4.496-4.15 9.72-4.395 15.32 5.338-.122 10.337-1.737 14.638-4.486 8.403-5.367 14.153-15.019 14.64-26.148-10.53.233-19.717 6.296-24.883 15.314zm26.952-5.155c2.529 6.955 7.238 12.728 13.234 16.358 4.336 2.623 9.34 4.132 14.673 4.132.192 0 .379-.01.565-.016-.245-5.598-1.822-10.823-4.395-15.319-5.27-9.197-14.727-15.335-25.516-15.335-.064 0-.128 0-.192.006M2.994 45.469A34.191 34.191 0 011 33.912c0-4.59.899-8.96 2.51-12.912M19.617 3.142A28.015 28.015 0 0130.367 1c4.272 0 8.338.966 12.016 2.697M19.617 63.332a28.015 28.015 0 0010.75 2.142 28.13 28.13 0 0012.016-2.696" stroke="#646B5C" stroke-width="1.3" stroke-miterlimit="10" stroke-linecap="round" stroke-linejoin="round"/></svg>
